Newaita-dark/apps/128/workspace-switcher-left-bottom.svg

<?xml version="1.0" encoding="UTF-8"?>
<svg xmlns="http://www.w3.org/2000/svg" xmlns:xlink="http://www.w3.org/1999/xlink" width="128pt" height="128pt" viewBox="0 0 128 128" version="1.1">
<defs>
<linearGradient id="linear0" gradientUnits="userSpaceOnUse" x1="254" y1="233.5" x2="254" y2="254.666672" gradientTransform="matrix(0.250024,0,0,0.250024,-0.0000152602,53.755133)">
<stop offset="0" style="stop-color:rgb(0%,0%,0%);stop-opacity:0.27451;"/>
<stop offset="1" style="stop-color:rgb(0%,0%,0%);stop-opacity:0;"/>
</linearGradient>
<radialGradient id="radial0" gradientUnits="userSpaceOnUse" cx="450.908936" cy="189.579361" fx="450.908936" fy="189.579361" r="21.166656" gradientTransform="matrix(0.000000696681,-0.31253,-0.562554,-0.000000406154,213.814764,254.381323)">
<stop offset="0" style="stop-color:rgb(0%,0%,0%);stop-opacity:0.313725;"/>
<stop offset="0.222222" style="stop-color:rgb(0%,0%,0%);stop-opacity:0.27451;"/>
<stop offset="1" style="stop-color:rgb(0%,0%,0%);stop-opacity:0;"/>
</radialGradient>
<radialGradient id="radial1" gradientUnits="userSpaceOnUse" cx="450.908936" cy="189.579361" fx="450.908936" fy="189.579361" r="21.166656" gradientTransform="matrix(-0.000000696681,0.31253,0.562554,0.000000406154,-86.802646,-30.109923)">
<stop offset="0" style="stop-color:rgb(0%,0%,0%);stop-opacity:0.313725;"/>
<stop offset="0.222222" style="stop-color:rgb(0%,0%,0%);stop-opacity:0.27451;"/>
<stop offset="1" style="stop-color:rgb(0%,0%,0%);stop-opacity:0;"/>
</radialGradient>
<radialGradient id="radial2" gradientUnits="userSpaceOnUse" cx="450.908936" cy="189.579361" fx="450.908936" fy="189.579361" r="21.166656" gradientTransform="matrix(-0.000000696681,-0.31253,0.562554,-0.000000406154,-86.802646,254.381323)">
<stop offset="0" style="stop-color:rgb(0%,0%,0%);stop-opacity:0.313725;"/>
<stop offset="0.222222" style="stop-color:rgb(0%,0%,0%);stop-opacity:0.27451;"/>
<stop offset="1" style="stop-color:rgb(0%,0%,0%);stop-opacity:0;"/>
</radialGradient>
<radialGradient id="radial3" gradientUnits="userSpaceOnUse" cx="450.908936" cy="189.579361" fx="450.908936" fy="189.579361" r="21.166656" gradientTransform="matrix(0.000000696681,0.31253,-0.562554,0.000000406154,213.814756,-30.109925)">
<stop offset="0" style="stop-color:rgb(0%,0%,0%);stop-opacity:0.313725;"/>
<stop offset="0.222222" style="stop-color:rgb(0%,0%,0%);stop-opacity:0.27451;"/>
<stop offset="1" style="stop-color:rgb(0%,0%,0%);stop-opacity:0;"/>
</radialGradient>
<linearGradient id="linear1" gradientUnits="userSpaceOnUse" x1="306.916656" y1="-25.791676" x2="305.954559" y2="-135.329163" gradientTransform="matrix(0.301399,0,0,0.869648,-23.416052,134.565393)">
<stop offset="0" style="stop-color:rgb(36.078431%,41.960784%,75.294118%);stop-opacity:1;"/>
<stop offset="1" style="stop-color:rgb(47.45098%,52.54902%,79.607843%);stop-opacity:1;"/>
</linearGradient>
<linearGradient id="linear2" gradientUnits="userSpaceOnUse" x1="127" y1="43" x2="127" y2="-168.666672" gradientTransform="matrix(0.250024,0,0,0.250024,5.292176,101.384681)">
<stop offset="0" style="stop-color:rgb(69.019608%,74.509804%,77.254902%);stop-opacity:1;"/>
<stop offset="1" style="stop-color:rgb(81.176471%,84.705882%,86.27451%);stop-opacity:1;"/>
</linearGradient>
</defs>
<g id="surface1">
<path style=" stroke:none;fill-rule:nonzero;fill:url(#linear0);" d="M 18.523438 112.136719 L 108.488281 112.136719 L 108.488281 117.429688 L 18.523438 117.429688 Z M 18.523438 112.136719 "/>
<path style=" stroke:none;fill-rule:nonzero;fill:url(#radial0);" d="M 108.488281 112.136719 L 119.074219 112.136719 L 119.074219 106.84375 L 108.488281 106.84375 Z M 108.488281 112.136719 "/>
<path style=" stroke:none;fill-rule:nonzero;fill:url(#radial1);" d="M 18.523438 112.136719 L 7.9375 112.136719 L 7.9375 117.429688 L 18.523438 117.429688 Z M 18.523438 112.136719 "/>
<path style=" stroke:none;fill-rule:nonzero;fill:url(#radial2);" d="M 18.523438 112.136719 L 7.9375 112.136719 L 7.9375 106.84375 L 18.523438 106.84375 Z M 18.523438 112.136719 "/>
<path style=" stroke:none;fill-rule:nonzero;fill:url(#radial3);" d="M 108.488281 112.136719 L 119.074219 112.136719 L 119.074219 117.429688 L 108.488281 117.429688 Z M 108.488281 112.136719 "/>
<path style=" stroke:none;fill-rule:nonzero;fill:url(#linear1);" d="M 13.230469 16.875 L 113.78125 16.875 C 116.703125 16.875 119.074219 19.246094 119.074219 22.167969 L 119.074219 106.84375 C 119.074219 109.765625 116.703125 112.136719 113.78125 112.136719 L 13.230469 112.136719 C 10.308594 112.136719 7.9375 109.765625 7.9375 106.84375 L 7.9375 22.167969 C 7.9375 19.246094 10.308594 16.875 13.230469 16.875 Z M 13.230469 16.875 "/>
<path style=" stroke:none;fill-rule:nonzero;fill:rgb(0%,0%,0%);fill-opacity:0.235294;" d="M 13.230469 112.1875 C 10.296875 112.1875 7.9375 109.828125 7.9375 106.894531 L 7.9375 105.519531 C 7.9375 108.453125 10.296875 110.8125 13.230469 110.8125 L 113.78125 110.8125 C 116.714844 110.8125 119.074219 108.453125 119.074219 105.519531 L 119.074219 106.894531 C 119.074219 109.828125 116.714844 112.1875 113.78125 112.1875 Z M 13.230469 112.1875 "/>
<path style=" stroke:none;fill-rule:nonzero;fill:rgb(100%,100%,100%);fill-opacity:0.392157;" d="M 13.230469 17.183594 C 10.296875 17.183594 7.9375 19.542969 7.9375 22.472656 L 7.9375 23.847656 C 7.9375 20.917969 10.296875 18.558594 13.230469 18.558594 L 113.78125 18.558594 C 116.714844 18.558594 119.074219 20.917969 119.074219 23.847656 L 119.074219 22.472656 C 119.074219 19.542969 116.714844 17.183594 113.78125 17.183594 Z M 13.230469 17.183594 "/>
<path style=" stroke:none;fill-rule:nonzero;fill:rgb(12.941177%,12.941177%,12.941177%);fill-opacity:1;" d="M 13.230469 16.5 C 10.097656 16.5 7.5625 19.035156 7.5625 22.167969 L 7.5625 106.84375 C 7.5625 109.976562 10.097656 112.511719 13.230469 112.511719 L 113.78125 112.511719 C 116.914062 112.511719 119.449219 109.976562 119.449219 106.84375 L 119.449219 22.167969 C 119.449219 19.035156 116.914062 16.5 113.78125 16.5 Z M 13.230469 17.25 L 113.78125 17.25 C 116.511719 17.25 118.699219 19.4375 118.699219 22.167969 L 118.699219 106.84375 C 118.699219 109.574219 116.511719 111.761719 113.78125 111.761719 L 13.230469 111.761719 C 10.5 111.761719 8.3125 109.574219 8.3125 106.84375 L 8.3125 22.167969 C 8.3125 19.4375 10.5 17.25 13.230469 17.25 Z M 13.230469 17.25 "/>
<path style=" stroke:none;fill-rule:nonzero;fill:url(#linear2);" d="M 13.230469 59.214844 L 63.507812 59.214844 C 66.429688 59.214844 68.796875 61.582031 68.796875 64.507812 L 68.796875 106.84375 C 68.796875 109.765625 66.429688 112.136719 63.507812 112.136719 L 13.230469 112.136719 C 10.308594 112.136719 7.9375 109.765625 7.9375 106.84375 L 7.9375 64.507812 C 7.9375 61.582031 10.308594 59.214844 13.230469 59.214844 Z M 13.230469 59.214844 "/>
<path style=" stroke:none;fill-rule:nonzero;fill:rgb(100%,100%,100%);fill-opacity:0.392157;" d="M 13.230469 59.214844 C 10.296875 59.214844 7.9375 61.574219 7.9375 64.507812 L 7.9375 65.828125 C 7.9375 62.898438 10.296875 60.535156 13.230469 60.535156 L 63.507812 60.535156 C 66.4375 60.535156 68.796875 62.898438 68.796875 65.828125 L 68.796875 64.507812 C 68.796875 61.574219 66.4375 59.214844 63.507812 59.214844 Z M 13.230469 59.214844 "/>
<path style=" stroke:none;fill-rule:nonzero;fill:rgb(0%,0%,0%);fill-opacity:0.235294;" d="M 13.230469 112.136719 C 10.296875 112.136719 7.9375 109.777344 7.9375 106.84375 L 7.9375 105.519531 C 7.9375 108.453125 10.296875 110.8125 13.230469 110.8125 L 63.507812 110.8125 C 66.4375 110.8125 68.796875 108.453125 68.796875 105.519531 L 68.796875 106.84375 C 68.796875 109.777344 66.4375 112.136719 63.507812 112.136719 Z M 13.230469 112.136719 "/>
<path style=" stroke:none;fill-rule:nonzero;fill:rgb(12.941177%,12.941177%,12.941177%);fill-opacity:1;" d="M 13.230469 58.839844 C 10.097656 58.839844 7.5625 61.371094 7.5625 64.507812 L 7.5625 106.84375 C 7.5625 109.976562 10.097656 112.511719 13.230469 112.511719 L 63.507812 112.511719 C 66.640625 112.511719 69.171875 109.976562 69.171875 106.84375 L 69.171875 64.507812 C 69.171875 61.371094 66.640625 58.839844 63.507812 58.839844 Z M 13.230469 59.589844 L 63.507812 59.589844 C 66.238281 59.589844 68.421875 61.777344 68.421875 64.507812 L 68.421875 106.84375 C 68.421875 109.574219 66.238281 111.761719 63.507812 111.761719 L 13.230469 111.761719 C 10.5 111.761719 8.3125 109.574219 8.3125 106.84375 L 8.3125 64.507812 C 8.3125 61.777344 10.5 59.589844 13.230469 59.589844 Z M 13.230469 59.589844 "/>
</g>
</svg>

<svg xmlns="http://www.w3.org/2000/svg" width="128pt" height="128pt" viewBox="0 0 128 128"><defs><linearGradient id="a" gradientUnits="userSpaceOnUse" x1="254" y1="233.5" x2="254" y2="254.667" gradientTransform="matrix(.25002 0 0 .25002 0 53.755)"><stop offset="0" stop-opacity=".275"/><stop offset="1" stop-opacity="0"/></linearGradient><radialGradient id="b" gradientUnits="userSpaceOnUse" cx="450.909" cy="189.579" fx="450.909" fy="189.579" r="21.167" gradientTransform="matrix(0 -.31253 -.56255 0 213.815 254.381)"><stop offset="0" stop-opacity=".314"/><stop offset=".222" stop-opacity=".275"/><stop offset="1" stop-opacity="0"/></radialGradient><radialGradient id="c" gradientUnits="userSpaceOnUse" cx="450.909" cy="189.579" fx="450.909" fy="189.579" r="21.167" gradientTransform="matrix(0 .31253 .56255 0 -86.803 -30.11)"><stop offset="0" stop-opacity=".314"/><stop offset=".222" stop-opacity=".275"/><stop offset="1" stop-opacity="0"/></radialGradient><radialGradient id="d" gradientUnits="userSpaceOnUse" cx="450.909" cy="189.579" fx="450.909" fy="189.579" r="21.167" gradientTransform="matrix(0 -.31253 .56255 0 -86.803 254.381)"><stop offset="0" stop-opacity=".314"/><stop offset=".222" stop-opacity=".275"/><stop offset="1" stop-opacity="0"/></radialGradient><radialGradient id="e" gradientUnits="userSpaceOnUse" cx="450.909" cy="189.579" fx="450.909" fy="189.579" r="21.167" gradientTransform="matrix(0 .31253 -.56255 0 213.815 -30.11)"><stop offset="0" stop-opacity=".314"/><stop offset=".222" stop-opacity=".275"/><stop offset="1" stop-opacity="0"/></radialGradient><linearGradient id="f" gradientUnits="userSpaceOnUse" x1="306.917" y1="-25.792" x2="305.955" y2="-135.329" gradientTransform="matrix(.3014 0 0 .86965 -23.416 134.565)"><stop offset="0" stop-color="#5c6bc0"/><stop offset="1" stop-color="#7986cb"/></linearGradient><linearGradient id="g" gradientUnits="userSpaceOnUse" x1="127" y1="43" x2="127" y2="-168.667" gradientTransform="matrix(.25002 0 0 .25002 5.292 101.385)"><stop offset="0" stop-color="#b0bec5"/><stop offset="1" stop-color="#cfd8dc"/></linearGradient></defs><path d="M18.523 112.137h89.965v5.293H18.523zm0 0" fill="url(#a)"/><path d="M108.488 112.137h10.586v-5.293h-10.586zm0 0" fill="url(#b)"/><path d="M18.523 112.137H7.938v5.293h10.585zm0 0" fill="url(#c)"/><path d="M18.523 112.137H7.938v-5.293h10.585zm0 0" fill="url(#d)"/><path d="M108.488 112.137h10.586v5.293h-10.586zm0 0" fill="url(#e)"/><path d="M13.23 16.875h100.551a5.295 5.295 0 0 1 5.293 5.293v84.676a5.295 5.295 0 0 1-5.293 5.293H13.231a5.295 5.295 0 0 1-5.293-5.293V22.168a5.295 5.295 0 0 1 5.292-5.293zm0 0" fill="url(#f)"/><path d="M13.23 112.188a5.28 5.28 0 0 1-5.293-5.293v-1.375a5.28 5.28 0 0 0 5.293 5.293h100.551a5.28 5.28 0 0 0 5.293-5.293v1.375a5.28 5.28 0 0 1-5.293 5.293zm0 0" fill-opacity=".235"/><path d="M13.23 17.184a5.279 5.279 0 0 0-5.293 5.289v1.375c0-2.93 2.36-5.29 5.293-5.29h100.551a5.279 5.279 0 0 1 5.293 5.29v-1.375c0-2.93-2.36-5.29-5.293-5.29zm0 0" fill="#fff" fill-opacity=".392"/><path d="M13.23 16.5a5.665 5.665 0 0 0-5.668 5.668v84.676a5.665 5.665 0 0 0 5.668 5.668h100.551a5.665 5.665 0 0 0 5.668-5.668V22.168a5.665 5.665 0 0 0-5.668-5.668zm0 .75h100.551a4.9 4.9 0 0 1 4.918 4.918v84.676a4.9 4.9 0 0 1-4.918 4.918H13.231a4.9 4.9 0 0 1-4.918-4.918V22.168a4.9 4.9 0 0 1 4.917-4.918zm0 0" fill="#212121"/><path d="M13.23 59.215h50.278a5.289 5.289 0 0 1 5.289 5.293v42.336a5.291 5.291 0 0 1-5.29 5.293H13.23a5.295 5.295 0 0 1-5.293-5.293V64.508a5.292 5.292 0 0 1 5.293-5.293zm0 0" fill="url(#g)"/><path d="M13.23 59.215a5.28 5.28 0 0 0-5.293 5.293v1.32c0-2.93 2.36-5.293 5.293-5.293h50.278c2.93 0 5.289 2.363 5.289 5.293v-1.32a5.279 5.279 0 0 0-5.29-5.293zm0 0" fill="#fff" fill-opacity=".392"/><path d="M13.23 112.137a5.28 5.28 0 0 1-5.293-5.293v-1.324a5.28 5.28 0 0 0 5.293 5.293h50.278c2.93 0 5.289-2.36 5.289-5.293v1.324a5.279 5.279 0 0 1-5.29 5.293zm0 0" fill-opacity=".235"/><path d="M13.23 58.84a5.662 5.662 0 0 0-5.668 5.668v42.336a5.665 5.665 0 0 0 5.668 5.668h50.278a5.661 5.661 0 0 0 5.664-5.668V64.508a5.659 5.659 0 0 0-5.664-5.668zm0 .75h50.278a4.896 4.896 0 0 1 4.914 4.918v42.336a4.896 4.896 0 0 1-4.914 4.918H13.23a4.9 4.9 0 0 1-4.918-4.918V64.508a4.9 4.9 0 0 1 4.918-4.918zm0 0" fill="#212121"/></svg>
